X:1
T:Title
%%score { ( 1 3 5 ) | ( 2 4 6 ) }
L:1/8
Q:1/4=100
M:4/4
K:D
V:1 treble nm="Grand Piano"
V:3 treble 
V:5 treble 
V:2 bass 
V:4 bass 
V:6 bass 
V:1
 [FA]2 [FA]2 d>c d>B | [FA]4 [DF]4 | .A2 z2 z4 | F4 A4 | [FA]2 [FA]2 d>c d>B | [FA]4 [Fd]4 | %6
w: Geo.~C.~Hugg * * * * *||||||
 e2 e2 c>A B>c |[M:3/4] [DFd]6 |[M:1/4] A>^G |[M:4/4] A6 z2 | A6 z2 | G6 z2 | F6 z2 | %13
w: |||||||
 [FA]>[=F^G] [^FA]>[=GB] [FA]2 [DF]>[FA] | d>c d>e d2 B>B | A4 [FA]2 z2 | [Fd]6 z2 |] %17
w: ||||
V:2
 [D,D]2 [D,D]2[K:treble] [G,B,G]>[G,^A,G] [G,B,G]>[G,DG] | [D,D]4 [D,A,]4 | %2
 .[A,,E,]2 [A,,A,]2 [A,,A,]>[A,,A,] [A,,A,]>[A,,A,] | [A,D]4 z4 | %4
 [D,D]2 [D,D]2[K:treble] [G,B,G]>[G,^A,G] [G,B,G]>[G,DG] | [D,D]4 [D,A,]4 | %6
 [G,B,G]2 [G,B,G]2 [A,EG]>[A,CG] [A,DG]>[A,EG] |[M:3/4] D,6 |[M:1/4] F>=F | %9
[M:4/4] F6[K:bass][K:treble] z2 | F6[K:bass] z2 | E6[K:treble] z2 | D6[K:bass] z2 | %13
 [D,D]>[D,D] [D,D]>[D,D] [D,D]2 [D,A,]>[D,D] | %14
 [G,B,G]>[G,A,G] [G,B,G]>[G,B,G] [G,B,G]2 [G,DG]>[G,DG] | F4[K:bass] z4[K:treble] | [D,D]6 z2 |] %17
V:3
 x8 | x8 | C-[A,CG] [CE]2 [FA]>[EG] [DF]>[CE] | x8 | x8 | x8 | x8 |[M:3/4] x6 |[M:1/4] x2 | %9
[M:4/4] z2 D>D z z/ A/ d>B | z2 D>D D2 G>F | z2 A,>A, z z/ B/ A>G | z2 A,>A, A,2 F>[EG] | x8 | x8 | %15
 z z/ D/ D>D D>D d>c | x8 |] %17
V:4
 x4[K:treble] x4 | x8 | x8 | D,4- [D,DF]4 | x4[K:treble] x4 | x8 | x8 |[M:3/4] x6 |[M:1/4] x2 | %9
[M:4/4] z2[K:bass] D,>D, z z/[K:treble] F/ F>G | z2[K:bass] D,>D, D,2 E>^D | %11
 z2 A,,>A,, z z/[K:treble] G/ F>E | z2[K:bass] D,>D, D,2 [D,A,D]>[D,A,] | x8 | x8 | %15
 [A,D]>[K:bass]A, A,>A, A,>A,[K:treble] [A,FA]>[A,EG] | x8 |] %17
V:5
 x8 | x8 | x8 | x8 | x8 | x8 | x8 |[M:3/4] x6 |[M:1/4] x2 |[M:4/4] z4 D2 z2 | x8 | z4 A,2 z2 | x8 | %13
 x8 | x8 | x8 | x8 |] %17
V:6
 x4[K:treble] x4 | x8 | x8 | x8 | x4[K:treble] x4 | x8 | x8 |[M:3/4] x6 |[M:1/4] x2 | %9
[M:4/4] z4[K:bass] D,2[K:treble] z2 | x2[K:bass] x6 | z4 A,,2[K:treble] z2 | x2[K:bass] x6 | x8 | %14
 x8 | x3/2[K:bass] x9/2[K:treble] x2 | x8 |] %17

